X: 41726
T: Valsa An tSeanbhaile
R: waltz
M: 3/4
K: Dmajor
A, DE|FB AF EF|D2>A,2 DE|FD d7/c/|B2>A2 Bc|
d2 fe dB|AF DD FA|BA G2 F2|E2>D2 DE|
FB AF EF|D2>A,2 DE|FA d2 c/B/A|B2>A2 Bc|
d2 fe dB|AF D2 D/E/F|E2 D2 C2|D2>d2 dc||
B2 Be dB|A2>A2 df|e2 ed de|f/e/d ed cd|
B2 Be dB|AF2< D2F|EF/E/ D2 C2|D2>d2 dc|
B2 Be dB|AF AF Af|e2>d2 de|f/e/d ed c/B/A|
B2 Be dB|Ad2< a2F|EF/E/ D2 C2|D3||

